public/SendMoney.svg

<svg width="449" height="111" viewBox="0 0 449 111" fill="none" xmlns="http://www.w3.org/2000/svg">
<path d="M13.0144 40.832C10.8304 40.832 8.61171 40.5547 6.35838 40C4.10504 39.48 2.19838 38.7693 0.638375 37.868L2.51038 29.392C4.52104 30.4667 6.39304 31.1773 8.12638 31.524C9.89438 31.836 11.5237 31.992 13.0144 31.992C14.401 31.992 15.441 31.7667 16.1344 31.316C16.8624 30.8653 17.2264 30.2587 17.2264 29.496C17.2264 28.8027 16.8277 28.2653 16.0304 27.884C15.233 27.468 14.193 27.0867 12.9104 26.74C11.6624 26.3933 10.3277 25.9947 8.90638 25.544C7.48504 25.0587 6.13304 24.4347 4.85038 23.672C3.60238 22.8747 2.57971 21.8347 1.78238 20.552C0.985042 19.2347 0.586375 17.588 0.586375 15.612C0.586375 13.116 1.19304 10.9667 2.40638 9.164C3.61971 7.32666 5.35304 5.92267 7.60638 4.952C9.85971 3.94667 12.5117 3.444 15.5624 3.444C17.6077 3.444 19.601 3.72133 21.5424 4.276C23.5184 4.796 25.0957 5.50666 26.2744 6.408L24.5064 14.052C22.7384 13.324 21.1437 12.804 19.7224 12.492C18.3357 12.1453 17.0184 11.972 15.7704 11.972C14.3144 11.972 13.205 12.18 12.4424 12.596C11.6797 13.012 11.2984 13.5667 11.2984 14.26C11.2984 14.9187 11.697 15.456 12.4944 15.872C13.2917 16.288 14.3144 16.6867 15.5624 17.068C16.8104 17.4493 18.145 17.8827 19.5664 18.368C20.9877 18.8533 22.3224 19.4947 23.5704 20.292C24.8184 21.0893 25.841 22.1293 26.6384 23.412C27.4357 24.6947 27.8344 26.3067 27.8344 28.248C27.8344 32.2693 26.517 35.372 23.8824 37.556C21.2824 39.74 17.6597 40.832 13.0144 40.832ZM47.5611 33.136C48.5664 33.136 49.6237 33.032 50.7331 32.824C51.8771 32.616 53.0384 32.2347 54.2171 31.68L55.4651 38.388C54.1824 39.0467 52.7784 39.5493 51.2531 39.896C49.7624 40.2427 48.0464 40.416 46.1051 40.416C42.6037 40.416 39.6571 39.844 37.2651 38.7C34.9077 37.556 33.1224 35.9787 31.9091 33.968C30.6957 31.9573 30.0891 29.6347 30.0891 27C30.0891 24.296 30.7304 21.9387 32.0131 19.928C33.3304 17.9173 35.0811 16.3573 37.2651 15.248C39.4491 14.1387 41.8584 13.584 44.4931 13.584C48.4104 13.584 51.4091 14.8147 53.4891 17.276C55.5691 19.7027 56.6091 23.1693 56.6091 27.676L41.1131 29.652C42.2571 31.9747 44.4064 33.136 47.5611 33.136ZM40.2811 24.868L48.4451 23.152C48.3064 22.0427 47.9251 21.228 47.3011 20.708C46.6771 20.1533 45.8971 19.876 44.9611 19.876C43.5744 19.876 42.4651 20.3613 41.6331 21.332C40.8357 22.268 40.3851 23.4467 40.2811 24.868ZM60.2328 40V13.948H71.0488V19.616C71.8461 17.6747 73.0248 16.184 74.5848 15.144C76.1795 14.104 78.0688 13.584 80.2528 13.584C83.6501 13.584 86.2848 14.7627 88.1568 17.12C90.0288 19.4427 90.9648 22.736 90.9648 27V40H79.9928V26.428C79.9928 23.3427 78.7448 21.8 76.2488 21.8C74.7581 21.8 73.5448 22.3547 72.6088 23.464C71.6728 24.5387 71.2048 25.9947 71.2048 27.832V40H60.2328ZM107.373 40.416C104.981 40.416 102.815 39.844 100.873 38.7C98.9319 37.5213 97.3893 35.9093 96.2453 33.864C95.1359 31.8187 94.5813 29.4787 94.5813 26.844C94.5813 24.2093 95.1359 21.904 96.2453 19.928C97.3893 17.952 98.9319 16.4093 100.873 15.3C102.815 14.156 104.981 13.584 107.373 13.584C109.072 13.584 110.701 14.052 112.261 14.988C113.856 15.8893 115.035 17.3627 115.797 19.408V5.732L126.769 4.12V40H115.901V35.164C115.069 36.8627 113.96 38.1627 112.573 39.064C111.187 39.9653 109.453 40.416 107.373 40.416ZM110.753 32.2C112.175 32.2 113.388 31.6973 114.393 30.692C115.399 29.652 115.901 28.3867 115.901 26.896C115.901 25.4053 115.399 24.192 114.393 23.256C113.388 22.2853 112.175 21.8 110.753 21.8C109.263 21.8 108.015 22.3027 107.009 23.308C106.004 24.3133 105.501 25.544 105.501 27C105.501 28.456 106.004 29.6867 107.009 30.692C108.015 31.6973 109.263 32.2 110.753 32.2ZM153.178 40.416C150.786 40.416 148.619 39.844 146.678 38.7C144.737 37.5213 143.194 35.9093 142.05 33.864C140.941 31.8187 140.386 29.4787 140.386 26.844C140.386 24.2093 140.941 21.904 142.05 19.928C143.194 17.952 144.737 16.4093 146.678 15.3C148.619 14.156 150.786 13.584 153.178 13.584C154.877 13.584 156.523 14.052 158.118 14.988C159.713 15.924 160.943 17.4667 161.81 19.616V13.948H172.626V40H161.706V35.164C160.874 36.8627 159.765 38.1627 158.378 39.064C156.991 39.9653 155.258 40.416 153.178 40.416ZM156.558 32.2C157.979 32.2 159.193 31.6973 160.198 30.692C161.203 29.652 161.706 28.3867 161.706 26.896C161.706 25.4053 161.203 24.192 160.198 23.256C159.193 22.2853 157.979 21.8 156.558 21.8C155.067 21.8 153.819 22.3027 152.814 23.308C151.809 24.3133 151.306 25.544 151.306 27C151.306 28.456 151.809 29.6867 152.814 30.692C153.819 31.6973 155.067 32.2 156.558 32.2ZM177.842 40V13.948H188.658V19.616C189.456 17.6747 190.634 16.184 192.194 15.144C193.789 14.104 195.678 13.584 197.862 13.584C201.26 13.584 203.894 14.7627 205.766 17.12C207.638 19.4427 208.574 22.736 208.574 27V40H197.602V26.428C197.602 23.3427 196.354 21.8 193.858 21.8C192.368 21.8 191.154 22.3547 190.218 23.464C189.282 24.5387 188.814 25.9947 188.814 27.832V40H177.842ZM224.983 40.416C222.591 40.416 220.424 39.844 218.483 38.7C216.541 37.5213 214.999 35.9093 213.855 33.864C212.745 31.8187 212.191 29.4787 212.191 26.844C212.191 24.2093 212.745 21.904 213.855 19.928C214.999 17.952 216.541 16.4093 218.483 15.3C220.424 14.156 222.591 13.584 224.983 13.584C226.681 13.584 228.311 14.052 229.871 14.988C231.465 15.8893 232.644 17.3627 233.407 19.408V5.732L244.379 4.12V40H233.511V35.164C232.679 36.8627 231.569 38.1627 230.183 39.064C228.796 39.9653 227.063 40.416 224.983 40.416ZM228.363 32.2C229.784 32.2 230.997 31.6973 232.003 30.692C233.008 29.652 233.511 28.3867 233.511 26.896C233.511 25.4053 233.008 24.192 232.003 23.256C230.997 22.2853 229.784 21.8 228.363 21.8C226.872 21.8 225.624 22.3027 224.619 23.308C223.613 24.3133 223.111 25.544 223.111 27C223.111 28.456 223.613 29.6867 224.619 30.692C225.624 31.6973 226.872 32.2 228.363 32.2ZM286.647 40.832C284.151 40.832 282.089 40.468 280.459 39.74C278.83 38.9773 277.53 37.9373 276.559 36.62C275.589 35.3027 274.861 33.76 274.375 31.992C273.89 30.224 273.561 28.3173 273.387 26.272H270.943V40H259.555V4.224H274.271C279.957 4.224 284.047 5.22933 286.543 7.24C289.074 9.216 290.339 11.9027 290.339 15.3C290.339 17.3453 289.785 19.1827 288.675 20.812C287.566 22.4067 285.781 23.7413 283.319 24.816C283.458 25.5787 283.579 26.2027 283.683 26.688C283.787 27.1733 283.943 27.7107 284.151 28.3C284.602 29.548 285.157 30.4147 285.815 30.9C286.509 31.3853 287.445 31.628 288.623 31.628C289.386 31.628 290.149 31.524 290.911 31.316L291.535 39.844C290.842 40.1213 290.097 40.3467 289.299 40.52C288.537 40.728 287.653 40.832 286.647 40.832ZM270.943 19.148H272.919C275.485 19.148 277.287 18.8707 278.327 18.316C279.402 17.7267 279.939 16.7387 279.939 15.352C279.939 14.1733 279.506 13.324 278.639 12.804C277.773 12.2493 276.403 11.972 274.531 11.972H270.943V19.148ZM310.608 33.136C311.613 33.136 312.671 33.032 313.78 32.824C314.924 32.616 316.085 32.2347 317.264 31.68L318.512 38.388C317.229 39.0467 315.825 39.5493 314.3 39.896C312.809 40.2427 311.093 40.416 309.152 40.416C305.651 40.416 302.704 39.844 300.312 38.7C297.955 37.556 296.169 35.9787 294.956 33.968C293.743 31.9573 293.136 29.6347 293.136 27C293.136 24.296 293.777 21.9387 295.06 19.928C296.377 17.9173 298.128 16.3573 300.312 15.248C302.496 14.1387 304.905 13.584 307.54 13.584C311.457 13.584 314.456 14.8147 316.536 17.276C318.616 19.7027 319.656 23.1693 319.656 27.676L304.16 29.652C305.304 31.9747 307.453 33.136 310.608 33.136ZM303.328 24.868L311.492 23.152C311.353 22.0427 310.972 21.228 310.348 20.708C309.724 20.1533 308.944 19.876 308.008 19.876C306.621 19.876 305.512 20.3613 304.68 21.332C303.883 22.268 303.432 23.4467 303.328 24.868ZM336.124 40.416C333.212 40.416 330.698 39.844 328.584 38.7C326.469 37.556 324.84 35.996 323.696 34.02C322.552 32.0093 321.98 29.704 321.98 27.104C321.98 24.5387 322.569 22.2333 323.748 20.188C324.926 18.1427 326.573 16.5307 328.688 15.352C330.837 14.1733 333.316 13.584 336.124 13.584C339.486 13.584 342.138 14.2773 344.08 15.664L342.936 22.736C342.069 22.3547 341.254 22.0947 340.492 21.956C339.729 21.7827 339.001 21.696 338.308 21.696C336.609 21.696 335.257 22.1813 334.252 23.152C333.281 24.088 332.796 25.3707 332.796 27C332.796 28.5947 333.281 29.8947 334.252 30.9C335.222 31.8707 336.505 32.356 338.1 32.356C339.486 32.356 341.116 32.0613 342.988 31.472L343.976 38.752C342.832 39.3067 341.636 39.7227 340.388 40C339.174 40.2773 337.753 40.416 336.124 40.416ZM363.827 33.136C364.832 33.136 365.889 33.032 366.999 32.824C368.143 32.616 369.304 32.2347 370.483 31.68L371.731 38.388C370.448 39.0467 369.044 39.5493 367.519 39.896C366.028 40.2427 364.312 40.416 362.371 40.416C358.869 40.416 355.923 39.844 353.531 38.7C351.173 37.556 349.388 35.9787 348.175 33.968C346.961 31.9573 346.355 29.6347 346.355 27C346.355 24.296 346.996 21.9387 348.279 19.928C349.596 17.9173 351.347 16.3573 353.531 15.248C355.715 14.1387 358.124 13.584 360.759 13.584C364.676 13.584 367.675 14.8147 369.755 17.276C371.835 19.7027 372.875 23.1693 372.875 27.676L357.379 29.652C358.523 31.9747 360.672 33.136 363.827 33.136ZM356.547 24.868L364.711 23.152C364.572 22.0427 364.191 21.228 363.567 20.708C362.943 20.1533 362.163 19.876 361.227 19.876C359.84 19.876 358.731 20.3613 357.899 21.332C357.101 22.268 356.651 23.4467 356.547 24.868ZM386.118 40.416C383.796 40.416 381.906 40 380.45 39.168C379.029 38.336 377.989 37.2093 377.33 35.788C376.672 34.3667 376.342 32.772 376.342 31.004V13.948H387.314V29.496C387.314 30.2933 387.54 30.9173 387.99 31.368C388.476 31.784 389.048 31.992 389.706 31.992C390.4 31.992 391.11 31.784 391.838 31.368L392.41 38.596C391.648 39.1853 390.66 39.636 389.446 39.948C388.233 40.26 387.124 40.416 386.118 40.416ZM381.854 11.088C380.26 11.088 378.89 10.5853 377.746 9.58C376.602 8.54 376.03 7.27467 376.03 5.784C376.03 4.744 376.308 3.84267 376.862 3.08C377.417 2.28266 378.145 1.65866 379.046 1.208C379.948 0.75733 380.884 0.531997 381.854 0.531997C382.929 0.531997 383.9 0.774663 384.766 1.26C385.668 1.74533 386.378 2.38667 386.898 3.184C387.453 3.98133 387.73 4.848 387.73 5.784C387.73 6.824 387.436 7.74267 386.846 8.54C386.292 9.33733 385.564 9.96133 384.662 10.412C383.796 10.8627 382.86 11.088 381.854 11.088ZM400.101 40L391.001 13.948H403.065L407.589 29.548L412.009 13.948H421.525L412.737 40H400.101ZM439.694 33.136C440.699 33.136 441.757 33.032 442.866 32.824C444.01 32.616 445.171 32.2347 446.35 31.68L447.598 38.388C446.315 39.0467 444.911 39.5493 443.386 39.896C441.895 40.2427 440.179 40.416 438.238 40.416C434.737 40.416 431.79 39.844 429.398 38.7C427.041 37.556 425.255 35.9787 424.042 33.968C422.829 31.9573 422.222 29.6347 422.222 27C422.222 24.296 422.863 21.9387 424.146 19.928C425.463 17.9173 427.214 16.3573 429.398 15.248C431.582 14.1387 433.991 13.584 436.626 13.584C440.543 13.584 443.542 14.8147 445.622 17.276C447.702 19.7027 448.742 23.1693 448.742 27.676L433.246 29.652C434.39 31.9747 436.539 33.136 439.694 33.136ZM432.414 24.868L440.578 23.152C440.439 22.0427 440.058 21.228 439.434 20.708C438.81 20.1533 438.03 19.876 437.094 19.876C435.707 19.876 434.598 20.3613 433.766 21.332C432.969 22.268 432.518 23.4467 432.414 24.868ZM139.102 100V64.224H149.918L158.862 81.592L167.598 64.224H178.414V100H167.598V81.28L160.994 93.76H156.574L149.918 81.28V100H139.102ZM197.307 100.416C194.361 100.416 191.761 99.844 189.507 98.7C187.254 97.556 185.486 95.9787 184.203 93.968C182.955 91.9227 182.331 89.5827 182.331 86.948C182.331 84.244 182.973 81.904 184.255 79.928C185.573 77.9173 187.358 76.3573 189.611 75.248C191.865 74.1387 194.447 73.584 197.359 73.584C200.341 73.584 202.958 74.156 205.211 75.3C207.465 76.4093 209.215 77.9693 210.463 79.98C211.711 81.956 212.335 84.2787 212.335 86.948C212.335 89.6173 211.694 91.9747 210.411 94.02C209.163 96.0307 207.413 97.608 205.159 98.752C202.906 99.8613 200.289 100.416 197.307 100.416ZM197.411 92.616C198.833 92.616 199.994 92.096 200.895 91.056C201.831 89.9813 202.299 88.612 202.299 86.948C202.299 85.284 201.849 83.932 200.947 82.892C200.046 81.8173 198.902 81.28 197.515 81.28C196.025 81.28 194.811 81.8173 193.875 82.892C192.974 83.932 192.523 85.284 192.523 86.948C192.523 88.612 192.974 89.9813 193.875 91.056C194.811 92.096 195.99 92.616 197.411 92.616ZM216.233 100V73.948H227.049V79.616C227.846 77.6747 229.025 76.184 230.585 75.144C232.179 74.104 234.069 73.584 236.253 73.584C239.65 73.584 242.285 74.7627 244.157 77.12C246.029 79.4427 246.965 82.736 246.965 87V100H235.993V86.428C235.993 83.3427 234.745 81.8 232.249 81.8C230.758 81.8 229.545 82.3547 228.609 83.464C227.673 84.5387 227.205 85.9947 227.205 87.832V100H216.233ZM268.053 93.136C269.059 93.136 270.116 93.032 271.225 92.824C272.369 92.616 273.531 92.2347 274.709 91.68L275.957 98.388C274.675 99.0467 273.271 99.5493 271.745 99.896C270.255 100.243 268.539 100.416 266.597 100.416C263.096 100.416 260.149 99.844 257.757 98.7C255.4 97.556 253.615 95.9787 252.401 93.968C251.188 91.9573 250.581 89.6347 250.581 87C250.581 84.296 251.223 81.9387 252.505 79.928C253.823 77.9173 255.573 76.3573 257.757 75.248C259.941 74.1387 262.351 73.584 264.985 73.584C268.903 73.584 271.901 74.8147 273.981 77.276C276.061 79.7027 277.101 83.1693 277.101 87.676L261.605 89.652C262.749 91.9747 264.899 93.136 268.053 93.136ZM260.773 84.868L268.937 83.152C268.799 82.0427 268.417 81.228 267.793 80.708C267.169 80.1533 266.389 79.876 265.453 79.876C264.067 79.876 262.957 80.3613 262.125 81.332C261.328 82.268 260.877 83.4467 260.773 84.868ZM294.401 110.14C293.084 110.14 291.853 110.053 290.709 109.88C289.565 109.707 288.664 109.499 288.005 109.256L288.837 101.716C289.461 101.855 290.137 101.959 290.865 102.028C291.593 102.132 292.304 102.184 292.997 102.184C295.32 102.184 296.984 101.699 297.989 100.728C299.029 99.7573 299.549 98.2667 299.549 96.256V93.292C298.717 95.4067 297.538 96.9493 296.013 97.92C294.488 98.856 292.685 99.324 290.605 99.324C287.381 99.324 284.885 98.1627 283.117 95.84C281.349 93.4827 280.465 90.172 280.465 85.908V73.948H291.437V86.48C291.437 89.5653 292.529 91.108 294.713 91.108C296.065 91.108 297.14 90.5533 297.937 89.444C298.769 88.3347 299.185 86.8787 299.185 85.076V73.948H310.157V93.916C310.157 99.4627 308.788 103.553 306.049 106.188C303.31 108.823 299.428 110.14 294.401 110.14Z" fill="black"/>
</svg>

<svg xmlns="http://www.w3.org/2000/svg" width="449" height="111" fill="none"><path fill="#000" d="M13.014 40.832q-3.275 0-6.656-.832-3.38-.78-5.72-2.132l1.872-8.476q3.017 1.612 5.616 2.132 2.653.468 4.888.468 2.08 0 3.12-.676 1.092-.675 1.092-1.82 0-1.04-1.196-1.612-1.195-.624-3.12-1.144a116 116 0 0 1-4.004-1.196 21.5 21.5 0 0 1-4.056-1.872 9.8 9.8 0 0 1-3.068-3.12Q.586 18.576.586 15.612q0-3.744 1.82-6.448 1.82-2.755 5.2-4.212 3.381-1.508 7.956-1.508 3.069 0 5.98.832 2.964.78 4.732 2.132l-1.768 7.644q-2.652-1.092-4.784-1.56-2.08-.52-3.952-.52-2.184 0-3.328.624t-1.144 1.664q0 .988 1.196 1.612 1.197.624 3.068 1.196 1.872.572 4.004 1.3a18.5 18.5 0 0 1 4.004 1.924 9.8 9.8 0 0 1 3.068 3.12q1.197 1.925 1.196 4.836 0 6.032-3.952 9.308-3.9 3.276-10.868 3.276m34.547-7.696q1.508 0 3.172-.312 1.716-.312 3.484-1.144l1.248 6.708a17.8 17.8 0 0 1-4.212 1.508q-2.236.52-5.148.52-5.252 0-8.84-1.716-3.536-1.716-5.356-4.732T30.09 27q0-4.056 1.924-7.072 1.976-3.015 5.252-4.68t7.228-1.664q5.876 0 8.996 3.692 3.12 3.64 3.12 10.4l-15.496 1.976q1.716 3.484 6.448 3.484m-7.28-8.268 8.164-1.716q-.208-1.665-1.144-2.444-.936-.832-2.34-.832-2.08 0-3.328 1.456-1.196 1.404-1.352 3.536M60.233 40V13.948h10.816v5.668q1.196-2.912 3.536-4.472 2.392-1.56 5.668-1.56 5.096 0 7.904 3.536 2.808 3.484 2.808 9.88v13H79.993V26.428q0-4.628-3.744-4.628-2.235 0-3.64 1.664-1.404 1.612-1.404 4.368V40zm47.14.416q-3.587 0-6.5-1.716-2.912-1.768-4.628-4.836-1.665-3.067-1.664-7.02 0-3.952 1.664-6.916 1.716-2.964 4.628-4.628 2.913-1.716 6.5-1.716 2.548 0 4.888 1.404 2.393 1.352 3.536 4.42V5.732l10.972-1.612V40h-10.868v-4.836q-1.248 2.549-3.328 3.9-2.08 1.352-5.2 1.352m3.38-8.216q2.133 0 3.64-1.508 1.508-1.56 1.508-3.796t-1.508-3.64q-1.507-1.455-3.64-1.456-2.235 0-3.744 1.508-1.508 1.508-1.508 3.692t1.508 3.692q1.509 1.508 3.744 1.508m42.425 8.216q-3.588 0-6.5-1.716-2.912-1.768-4.628-4.836-1.664-3.067-1.664-7.02t1.664-6.916q1.716-2.964 4.628-4.628 2.912-1.716 6.5-1.716 2.548 0 4.94 1.404t3.692 4.628v-5.668h10.816V40h-10.92v-4.836q-1.248 2.549-3.328 3.9-2.08 1.352-5.2 1.352m3.38-8.216q2.132 0 3.64-1.508 1.508-1.56 1.508-3.796t-1.508-3.64q-1.508-1.455-3.64-1.456-2.237 0-3.744 1.508T151.306 27t1.508 3.692 3.744 1.508m21.284 7.8V13.948h10.816v5.668q1.196-2.912 3.536-4.472 2.392-1.56 5.668-1.56 5.097 0 7.904 3.536 2.808 3.484 2.808 9.88v13h-10.972V26.428q0-4.628-3.744-4.628-2.236 0-3.64 1.664-1.404 1.612-1.404 4.368V40zm47.141.416q-3.588 0-6.5-1.716-2.913-1.768-4.628-4.836-1.665-3.067-1.664-7.02 0-3.952 1.664-6.916 1.715-2.964 4.628-4.628 2.912-1.716 6.5-1.716 2.548 0 4.888 1.404 2.391 1.352 3.536 4.42V5.732l10.972-1.612V40h-10.868v-4.836q-1.248 2.549-3.328 3.9-2.08 1.352-5.2 1.352m3.38-8.216q2.131 0 3.64-1.508 1.508-1.56 1.508-3.796t-1.508-3.64q-1.509-1.455-3.64-1.456-2.237 0-3.744 1.508-1.509 1.508-1.508 3.692t1.508 3.692 3.744 1.508m58.284 8.632q-3.743 0-6.188-1.092-2.443-1.145-3.9-3.12-1.455-1.976-2.184-4.628-.727-2.652-.988-5.72h-2.444V40h-11.388V4.224h14.716q8.528 0 12.272 3.016 3.796 2.964 3.796 8.06 0 3.068-1.664 5.512-1.663 2.393-5.356 4.004.208 1.144.364 1.872t.468 1.612q.677 1.872 1.664 2.6 1.041.728 2.808.728 1.145 0 2.288-.312l.624 8.528q-1.04.416-2.236.676-1.143.312-2.652.312m-15.704-21.684h1.976q3.848 0 5.408-.832 1.612-.884 1.612-2.964 0-1.768-1.3-2.548-1.3-.832-4.108-.832h-3.588zm39.665 13.988q1.508 0 3.172-.312 1.716-.312 3.484-1.144l1.248 6.708a17.8 17.8 0 0 1-4.212 1.508q-2.236.52-5.148.52-5.252 0-8.84-1.716-3.536-1.716-5.356-4.732T293.136 27q0-4.056 1.924-7.072 1.976-3.015 5.252-4.68t7.228-1.664q5.876 0 8.996 3.692 3.12 3.64 3.12 10.4l-15.496 1.976q1.716 3.484 6.448 3.484m-7.28-8.268 8.164-1.716q-.208-1.665-1.144-2.444-.936-.832-2.34-.832-2.08 0-3.328 1.456-1.196 1.404-1.352 3.536m32.796 15.548q-4.368 0-7.54-1.716t-4.888-4.68q-1.716-3.015-1.716-6.916 0-3.847 1.768-6.916 1.767-3.067 4.94-4.836 3.224-1.768 7.436-1.768 5.043 0 7.956 2.08l-1.144 7.072q-1.3-.572-2.444-.78a10 10 0 0 0-2.184-.26q-2.548 0-4.056 1.456-1.456 1.404-1.456 3.848 0 2.392 1.456 3.9 1.455 1.456 3.848 1.456 2.08 0 4.888-.884l.988 7.28q-1.716.832-3.588 1.248-1.82.416-4.264.416m27.703-7.28q1.507 0 3.172-.312 1.716-.312 3.484-1.144l1.248 6.708a17.8 17.8 0 0 1-4.212 1.508q-2.236.52-5.148.52-5.252 0-8.84-1.716-3.537-1.716-5.356-4.732-1.82-3.015-1.82-6.968 0-4.056 1.924-7.072 1.976-3.015 5.252-4.68t7.228-1.664q5.876 0 8.996 3.692 3.12 3.64 3.12 10.4l-15.496 1.976q1.716 3.484 6.448 3.484m-7.28-8.268 8.164-1.716q-.208-1.665-1.144-2.444-.936-.832-2.34-.832-2.08 0-3.328 1.456-1.197 1.404-1.352 3.536m29.571 15.548q-3.483 0-5.668-1.248-2.132-1.248-3.12-3.38t-.988-4.784V13.948h10.972v15.548q0 1.195.676 1.872a2.56 2.56 0 0 0 1.716.624q1.04 0 2.132-.624l.572 7.228q-1.143.884-2.964 1.352t-3.328.468m-4.264-29.328q-2.392 0-4.108-1.508-1.716-1.56-1.716-3.796 0-1.56.832-2.704a5.74 5.74 0 0 1 2.184-1.872 6.2 6.2 0 0 1 2.808-.676q1.613 0 2.912.728 1.352.728 2.132 1.924.832 1.196.832 2.6 0 1.56-.884 2.756a5.7 5.7 0 0 1-2.184 1.872 6 6 0 0 1-2.808.676M400.101 40l-9.1-26.052h12.064l4.524 15.6 4.42-15.6h9.516L412.737 40zm39.593-6.864q1.508 0 3.172-.312 1.716-.312 3.484-1.144l1.248 6.708a17.8 17.8 0 0 1-4.212 1.508q-2.236.52-5.148.52-5.252 0-8.84-1.716-3.536-1.716-5.356-4.732T422.222 27q0-4.056 1.924-7.072 1.976-3.015 5.252-4.68t7.228-1.664q5.876 0 8.996 3.692 3.12 3.64 3.12 10.4l-15.496 1.976q1.716 3.484 6.448 3.484m-7.28-8.268 8.164-1.716q-.208-1.665-1.144-2.444-.936-.832-2.34-.832-2.08 0-3.328 1.456-1.196 1.404-1.352 3.536M139.102 100V64.224h10.816l8.944 17.368 8.736-17.368h10.816V100h-10.816V81.28l-6.604 12.48h-4.42l-6.656-12.48V100zm58.205.416q-4.419 0-7.8-1.716-3.38-1.716-5.304-4.732-1.872-3.068-1.872-7.02 0-4.056 1.924-7.02 1.977-3.015 5.356-4.68 3.38-1.665 7.748-1.664 4.473 0 7.852 1.716 3.38 1.665 5.252 4.68 1.872 2.964 1.872 6.968 0 4.005-1.924 7.072-1.871 3.016-5.252 4.732-3.38 1.665-7.852 1.664m.104-7.8q2.133 0 3.484-1.56 1.404-1.612 1.404-4.108t-1.352-4.056q-1.352-1.612-3.432-1.612-2.236 0-3.64 1.612-1.352 1.56-1.352 4.056t1.352 4.108q1.404 1.56 3.536 1.56M216.233 100V73.948h10.816v5.668q1.196-2.912 3.536-4.472 2.392-1.56 5.668-1.56 5.096 0 7.904 3.536 2.808 3.484 2.808 9.88v13h-10.972V86.428q0-4.628-3.744-4.628-2.236 0-3.64 1.664-1.404 1.612-1.404 4.368V100zm51.82-6.864a17 17 0 0 0 3.172-.312q1.716-.312 3.484-1.144l1.248 6.708a17.8 17.8 0 0 1-4.212 1.508q-2.235.52-5.148.52-5.252 0-8.84-1.716-3.535-1.716-5.356-4.732T250.581 87q0-4.056 1.924-7.072 1.977-3.015 5.252-4.68 3.276-1.665 7.228-1.664 5.876 0 8.996 3.692 3.12 3.64 3.12 10.4l-15.496 1.976q1.716 3.484 6.448 3.484m-7.28-8.268 8.164-1.716q-.207-1.665-1.144-2.444-.936-.832-2.34-.832-2.08 0-3.328 1.456-1.196 1.404-1.352 3.536m33.628 25.272q-1.976 0-3.692-.26t-2.704-.624l.832-7.54q.936.208 2.028.312 1.092.156 2.132.156 3.484 0 4.992-1.456 1.56-1.455 1.56-4.472v-2.964q-1.248 3.172-3.536 4.628-2.288 1.404-5.408 1.404-4.836 0-7.488-3.484-2.652-3.536-2.652-9.932v-11.96h10.972V86.48q0 4.628 3.276 4.628 2.028 0 3.224-1.664 1.248-1.664 1.248-4.368V73.948h10.972v19.968q0 8.32-4.108 12.272t-11.648 3.952"/></svg>
